_includes/icons/ios-security-ssl.svg

<svg fill="#666" height="50" viewBox="0 0 50 50" width="50" xmlns="http://www.w3.org/2000/svg"><path d="m25 0c-2.453125 0-4.523437 1.355469-7.59375 2.9375-3.070312 1.582031-7.191406 3.492188-13.625 4.90625l-.78125.1875v.78125c0 15.320313 5.371094 25.558594 10.75 31.90625s10.84375 8.875 10.84375 8.875l.4375.21875.4375-.21875s21.53125-11.125 21.53125-40.78125v-.78125l-.78125-.1875c-6.433594-1.414062-10.554687-3.324219-13.625-4.90625-3.070312-1.582031-5.140625-2.9375-7.59375-2.9375zm0 2c1.644531 0 3.550781 1.105469 6.6875 2.71875 2.980469 1.53125 7.171875 3.410156 13.25 4.84375-.367187 27.117188-18.683594 37.289063-19.96875 37.96875-.621094-.300781-4.949219-2.464844-9.71875-8.09375-5.027344-5.933594-10.003906-15.476562-10.1875-29.875 6.078125-1.433594 10.269531-3.3125 13.25-4.84375 3.136719-1.613281 5.042969-2.71875 6.6875-2.71875zm-5.59375 15.4375c-2.140625 0-3.34375 1.402344-3.34375 3.1875 0 1.242188.882813 2.402344 2.15625 3.21875.933594.648438 1.5 1.175781 1.5 2.09375 0 .953125-.628906 1.59375-1.75 1.59375-.59375 0-1.324219-.214844-1.75-.46875l-.3125 1.5625c.355469.238281 1.210938.46875 2.0625.46875 2.058594 0 3.53125-1.285156 3.53125-3.34375 0-1.222656-.585937-2.332031-2.03125-3.28125-1.171875-.746094-1.625-1.179687-1.625-2.0625 0-.699219.496094-1.375 1.53125-1.375.613281 0 1.082031.171875 1.40625.375l.3125-1.5625c-.304687-.1875-.957031-.40625-1.6875-.40625zm6.4375 0c-2.140625 0-3.34375 1.402344-3.34375 3.1875 0 1.242188.882813 2.402344 2.15625 3.21875.933594.648438 1.5 1.175781 1.5 2.09375 0 .953125-.597656 1.59375-1.71875 1.59375-.59375 0-1.355469-.214844-1.78125-.46875l-.3125 1.5625c.355469.238281 1.210938.46875 2.0625.46875 2.058594 0 3.53125-1.285156 3.53125-3.34375 0-1.222656-.585937-2.332031-2.03125-3.28125-1.171875-.746094-1.625-1.179687-1.625-2.0625 0-.699219.496094-1.375 1.53125-1.375.613281 0 1.082031.171875 1.40625.375l.34375-1.5625c-.304687-.1875-.988281-.40625-1.71875-.40625zm3.5.09375v11.46875h4.875v-1.53125h-3.0625v-9.9375z"/></svg>

<svg xmlns="http://www.w3.org/2000/svg" viewBox="0 0 50 50" width="50" height="50" fill="#666"><path d="M 25 0 C 22.546875 0 20.476563 1.355469 17.40625 2.9375 C 14.335938 4.519531 10.214844 6.429688 3.78125 7.84375 L 3 8.03125 L 3 8.8125 C 3 24.132813 8.371094 34.371094 13.75 40.71875 C 19.128906 47.066406 24.59375 49.59375 24.59375 49.59375 L 25.03125 49.8125 L 25.46875 49.59375 C 25.46875 49.59375 47 38.46875 47 8.8125 L 47 8.03125 L 46.21875 7.84375 C 39.785156 6.429688 35.664063 4.519531 32.59375 2.9375 C 29.523438 1.355469 27.453125 0 25 0 Z M 25 2 C 26.644531 2 28.550781 3.105469 31.6875 4.71875 C 34.667969 6.25 38.859375 8.128906 44.9375 9.5625 C 44.570313 36.679688 26.253906 46.851563 24.96875 47.53125 C 24.347656 47.230469 20.019531 45.066406 15.25 39.4375 C 10.222656 33.503906 5.246094 23.960938 5.0625 9.5625 C 11.140625 8.128906 15.332031 6.25 18.3125 4.71875 C 21.449219 3.105469 23.355469 2 25 2 Z M 19.40625 17.4375 C 17.265625 17.4375 16.0625 18.839844 16.0625 20.625 C 16.0625 21.867188 16.945313 23.027344 18.21875 23.84375 C 19.152344 24.492188 19.71875 25.019531 19.71875 25.9375 C 19.71875 26.890625 19.089844 27.53125 17.96875 27.53125 C 17.375 27.53125 16.644531 27.316406 16.21875 27.0625 L 15.90625 28.625 C 16.261719 28.863281 17.117188 29.09375 17.96875 29.09375 C 20.027344 29.09375 21.5 27.808594 21.5 25.75 C 21.5 24.527344 20.914063 23.417969 19.46875 22.46875 C 18.296875 21.722656 17.84375 21.289063 17.84375 20.40625 C 17.84375 19.707031 18.339844 19.03125 19.375 19.03125 C 19.988281 19.03125 20.457031 19.203125 20.78125 19.40625 L 21.09375 17.84375 C 20.789063 17.65625 20.136719 17.4375 19.40625 17.4375 Z M 25.84375 17.4375 C 23.703125 17.4375 22.5 18.839844 22.5 20.625 C 22.5 21.867188 23.382813 23.027344 24.65625 23.84375 C 25.589844 24.492188 26.15625 25.019531 26.15625 25.9375 C 26.15625 26.890625 25.558594 27.53125 24.4375 27.53125 C 23.84375 27.53125 23.082031 27.316406 22.65625 27.0625 L 22.34375 28.625 C 22.699219 28.863281 23.554688 29.09375 24.40625 29.09375 C 26.464844 29.09375 27.9375 27.808594 27.9375 25.75 C 27.9375 24.527344 27.351563 23.417969 25.90625 22.46875 C 24.734375 21.722656 24.28125 21.289063 24.28125 20.40625 C 24.28125 19.707031 24.777344 19.03125 25.8125 19.03125 C 26.425781 19.03125 26.894531 19.203125 27.21875 19.40625 L 27.5625 17.84375 C 27.257813 17.65625 26.574219 17.4375 25.84375 17.4375 Z M 29.34375 17.53125 L 29.34375 29 L 34.21875 29 L 34.21875 27.46875 L 31.15625 27.46875 L 31.15625 17.53125 Z"/></svg>
